packages/ui-icons/src/Service-logos/24/Boom_direct_url.svg

<?xml version="1.0" encoding="UTF-8"?>
<svg viewBox="0 0 32 32" version="1.1" xmlns="http://www.w3.org/2000/svg" xmlns:xlink="http://www.w3.org/1999/xlink">
    <!-- Generator: Sketch 49 (51002) - http://www.bohemiancoding.com/sketch -->
    <title>logo/24/boom</title>
    <desc>Created with Sketch.</desc>
    <defs>
        <radialGradient cx="25.9155273%" cy="74.4384766%" fx="25.9155273%" fy="74.4384766%" r="71.4121611%" gradientTransform="translate(0.259155,0.744385),rotate(-46.448431),scale(1.000000,1.007085),translate(-0.259155,-0.744385)" id="radialGradient-1">
            <stop stop-color="#FD568C" offset="0%"></stop>
            <stop stop-color="#F13F34" offset="100%"></stop>
        </radialGradient>
        <path d="M19.2305,15.668 C19.2515,15.688 19.2695,15.717 19.2925,15.722 C19.5765,15.793 19.8095,15.961 20.0495,16.111 C20.2715,16.248 20.5705,16.619 20.6675,16.851 C20.7415,17.024 20.7935,17.203 20.8315,17.391 C20.8595,17.534 20.8535,17.673 20.8615,17.814 C20.8685,17.959 20.8835,18.11 20.8555,18.25 C20.8345,18.354 20.8345,18.46 20.8055,18.562 C20.7235,18.847 20.6385,19.13 20.4895,19.392 C20.3345,19.662 20.1535,19.912 19.9175,20.111 C19.7475,20.254 19.5775,20.404 19.3645,20.487 C19.2925,20.516 19.2415,20.579 19.1565,20.591 C19.0825,20.602 19.0145,20.649 18.9415,20.675 C18.8685,20.7 18.7725,20.695 18.7215,20.742 C18.6525,20.807 18.5505,20.736 18.5015,20.82 C18.4995,20.823 18.4875,20.82 18.4805,20.821 C18.2975,20.835 18.1165,20.86 17.9345,20.86 C15.9385,20.863 13.9415,20.862 11.9445,20.862 L11.7305,20.862 L11.7305,11.263 L11.9395,11.263 C13.9215,11.263 15.9045,11.266 17.8865,11.259 C18.1525,11.258 18.3975,11.328 18.6425,11.404 C19.0855,11.544 19.4435,11.823 19.7415,12.171 C19.9975,12.47 20.1675,12.821 20.2775,13.2 C20.3235,13.358 20.3665,13.519 20.3625,13.687 C20.3595,13.833 20.3625,13.979 20.3615,14.125 C20.3615,14.399 20.1895,14.814 20.0235,15.05 C19.8375,15.316 19.4945,15.543 19.2305,15.668 Z M15.4415,18.149 L16.5075,18.149 C16.5865,18.149 16.6625,18.139 16.7425,18.113 C16.8925,18.064 16.9885,17.972 17.0665,17.84 C17.1555,17.691 17.1745,17.53 17.1395,17.375 C17.0835,17.131 16.8005,16.94 16.5385,16.939 C16.2325,16.939 15.9265,16.939 15.6205,16.939 L15.4415,16.939 L15.4415,18.149 Z M15.4415,14.936 C15.8005,14.936 16.1475,14.935 16.4945,14.937 C16.5785,14.937 16.6455,14.908 16.7105,14.854 C16.8605,14.731 16.9115,14.574 16.8975,14.388 C16.8845,14.21 16.6625,13.981 16.4845,13.978 C16.1385,13.972 15.7925,13.976 15.4415,13.976 L15.4415,14.936 Z M16.0005,5.92 C17.3615,5.92 18.6815,6.186 19.9225,6.711 C21.1235,7.219 22.2015,7.946 23.1275,8.873 C24.0535,9.799 24.7815,10.877 25.2895,12.077 C25.8135,13.318 26.0805,14.638 26.0805,16 C26.0805,17.361 25.8135,18.682 25.2895,19.923 C24.7815,21.123 24.0535,22.201 23.1275,23.128 C22.2015,24.054 21.1235,24.781 19.9225,25.289 C18.6815,25.814 17.3615,26.08 16.0005,26.08 C14.6385,26.08 13.3185,25.814 12.0775,25.289 C10.8765,24.781 9.7985,24.054 8.8725,23.128 C7.9455,22.201 7.2185,21.123 6.7115,19.923 C6.1865,18.682 5.9195,17.361 5.9195,16 C5.9195,14.638 6.1865,13.318 6.7115,12.077 C7.2185,10.877 7.9455,9.799 8.8725,8.873 C9.7985,7.946 10.8765,7.219 12.0775,6.711 C13.3185,6.186 14.6385,5.92 16.0005,5.92 Z M16.0005,4 C9.3725,4 4.0005,9.373 4.0005,16 C4.0005,22.627 9.3725,28 16.0005,28 C22.6265,28 28.0005,22.627 28.0005,16 C28.0005,9.373 22.6265,4 16.0005,4 Z" id="path-2"></path>
    </defs>
    <g id="logo/24/boom" stroke="none" stroke-width="1" fill="none" fill-rule="evenodd">
        <mask id="mask-3" fill="white">
            <use xlink:href="#path-2"></use>
        </mask>
        <use id="Fill-1" fill="url(#radialGradient-1)" xlink:href="#path-2"></use>
    </g>
</svg>

<svg viewBox="0 0 32 32" xmlns="http://www.w3.org/2000/svg" xmlns:xlink="http://www.w3.org/1999/xlink"><defs><radialGradient cx="25.916%" cy="74.438%" fx="25.916%" fy="74.438%" r="71.412%" gradientTransform="rotate(-46.448 .253 .747) scale(1 1.00709)" id="b"><stop stop-color="#FD568C" offset="0%"/><stop stop-color="#F13F34" offset="100%"/></radialGradient><path d="M19.23 15.668c.021.02.04.049.063.054.284.071.517.239.756.389.223.137.521.508.619.74.073.173.126.352.163.54.029.143.023.282.03.423.008.145.023.296-.006.436-.02.104-.02.21-.05.312-.081.285-.166.568-.316.83-.155.27-.335.52-.572.719-.17.143-.34.293-.553.376-.072.029-.123.092-.207.104-.075.011-.142.058-.215.084-.073.025-.17.02-.22.067-.07.065-.172-.006-.22.078-.002.003-.014 0-.021.001-.184.014-.365.039-.547.039-1.996.003-3.993.002-5.99.002h-.214v-9.599h.21c1.982 0 3.965.003 5.947-.004.265-.001.51.069.755.145.444.14.802.419 1.1.767.255.299.425.65.535 1.029.046.158.09.319.085.487-.002.146 0 .292 0 .438 0 .274-.172.689-.338.925-.187.266-.53.493-.794.618Zm-3.789 2.481h1.066c.08 0 .155-.01.235-.036a.565.565 0 0 0 .325-.273.621.621 0 0 0 .073-.465c-.056-.244-.34-.435-.602-.436h-1.096v1.21Zm0-3.213c.36 0 .707-.001 1.053.001a.323.323 0 0 0 .216-.083.511.511 0 0 0 .188-.466c-.014-.178-.235-.407-.413-.41-.346-.006-.692-.002-1.043-.002v.96Zm.56-9.016a10.035 10.035 0 0 1 7.127 2.953A10.031 10.031 0 0 1 26.08 16a10.035 10.035 0 0 1-2.953 7.128A10.049 10.049 0 0 1 16 26.08a10.049 10.049 0 0 1-7.128-2.952A10.038 10.038 0 0 1 5.92 16c0-1.362.266-2.682.792-3.923a10.023 10.023 0 0 1 2.16-3.204A10.035 10.035 0 0 1 16 5.92ZM16 4C9.371 4 4 9.373 4 16s5.372 12 12 12c6.625 0 12-5.373 12-12S22.625 4 16 4Z" id="a"/></defs><use fill="url(#b)" xlink:href="#a" fill-rule="evenodd"/></svg>
